X: 12973
T: Fiddles On The Wall
R: reel
M: 4/4
K: Bminor
|:BBBc BAFA|BABc dcBc|AEEE ABcB|ABce afec|
BBBc BAFA|BABc dcBc|AEEE ABcf|1 afec B2 c/B/A:|2 afec B2de||
|:fBBB aBg2|f2fg fecB|AEEE ABcB|ABcd eBde|
fBBB aBg2|f2fg fecd|eAAA afec|1 ABcd B2 de:|2 ABcd B4||

